icons/mimetypes/64/android-package-archive.svg

<svg version="1.1" viewBox="0 0 64 64" xmlns="http://www.w3.org/2000/svg" xmlns:xlink="http://www.w3.org/1999/xlink">
 <defs>
  <linearGradient id="linearGradient2" x1="32" x2="32" y1="11" y2="61" gradientUnits="userSpaceOnUse">
   <stop stop-color="#fff" stop-opacity=".2" offset="0"/>
   <stop stop-color="#fff" stop-opacity="0" offset="1"/>
  </linearGradient>
 </defs>
 <rect x="7" y="11" width="50" height="50" fill="#9bd916"/>
  <rect x="7" y="60" width="50" height="1" opacity=".25" />
  <rect x="7" y="11" width="50" height="1" fill="#fff" opacity=".5" />
  <path d="m22 39c-2.98896 7.5e-4 -5.84891 1.21778-7.92188 3.37109l-2.7246-2.72461c-0.0942-0.0974-0.2239-0.15234-0.35938-0.15234-0.4494 9e-5 -0.67059 0.54683-0.34766 0.85937l2.76954 2.76954c-1.5635 1.95111-2.41564 4.37667-2.41602 6.87695v7h22v-7c-4e-3 -2.4983-0.85795-4.92089-2.42188-6.86914l2.77735-2.77735c0.32293-0.31254 0.10175-0.85928-0.34766-0.85937-0.13548 0-0.26516 0.055-0.35937 0.15234l-2.73242 2.73242c-2.07022-2.15473-4.92794-3.37452-7.91602-3.3789zm0 1c5.52285 0 10 4.47715 10 10v6h-20v-6c0-5.52285 4.47715-10 10-10zm-4.5 5c-0.82843 0-1.5 0.67157-1.5 1.5s0.67157 1.5 1.5 1.5 1.5-0.67157 1.5-1.5-0.67157-1.5-1.5-1.5zm9 0c-0.82843 0-1.5 0.67157-1.5 1.5s0.67157 1.5 1.5 1.5 1.5-0.67157 1.5-1.5-0.67157-1.5-1.5-1.5z" fill="#fff" opacity=".75" />
 <rect x="7" y="11" width="50" height="50" fill="url(#linearGradient2)" />
 <path d="m40 12v2h2v-2h-2zm2 2v2h2v-2h-2zm0 2h-2v2h2v-2zm0 2v2h2v-2h-2zm0 2h-2v2h2v-2zm0 2v2h2v-2h-2zm0 2h-2v2h2v-2zm-2 3v4h1v4h2v-4h1v-4h-4zm1 1h2v2h-2v-2z" fill="#fff" opacity=".75"/>
</svg>

<?xml version="1.0" encoding="UTF-8" standalone="no"?>
<svg
   xmlns:dc="http://purl.org/dc/elements/1.1/"
   xmlns:cc="http://creativecommons.org/ns#"
   xmlns:rdf="http://www.w3.org/1999/02/22-rdf-syntax-ns#"
   xmlns:svg="http://www.w3.org/2000/svg"
   xmlns="http://www.w3.org/2000/svg"
   xmlns:xlink="http://www.w3.org/1999/xlink"
   xmlns:sodipodi="http://sodipodi.sourceforge.net/DTD/sodipodi-0.dtd"
   xmlns:inkscape="http://www.inkscape.org/namespaces/inkscape"
   width="64"
   version="1.1"
   viewBox="0 0 64 64"
   height="64"
   id="svg2"
   inkscape:version="0.91 r13725"
   sodipodi:docname="android-package-archive.svg">
  <sodipodi:namedview
     pagecolor="#ffffff"
     bordercolor="#666666"
     borderopacity="1"
     objecttolerance="10"
     gridtolerance="10"
     guidetolerance="10"
     inkscape:pageopacity="0"
     inkscape:pageshadow="2"
     inkscape:window-width="1360"
     inkscape:window-height="708"
     id="namedview33"
     showgrid="true"
     inkscape:object-nodes="true"
     inkscape:zoom="5.6568542"
     inkscape:cx="50.861875"
     inkscape:cy="21.2677"
     inkscape:window-x="0"
     inkscape:window-y="0"
     inkscape:window-maximized="1"
     inkscape:current-layer="svg2"
     inkscape:snap-bbox="true"
     inkscape:bbox-nodes="true">
    <inkscape:grid
       type="xygrid"
       id="grid4162" />
  </sodipodi:namedview>
  <defs
     id="defs4">
    <linearGradient
       id="linearGradient4300-2">
      <stop
         id="stop4302-4"
         style="stop-color:#3a539b" />
      <stop
         id="stop4304-1"
         style="stop-color:#3f5aa9"
         offset="1" />
    </linearGradient>
    <linearGradient
       inkscape:collect="always"
       id="linearGradient6251">
      <stop
         style="stop-color:#ffffff;stop-opacity:0"
         offset="0"
         id="stop6253" />
      <stop
         style="stop-color:#ffffff;stop-opacity:0.2"
         offset="1"
         id="stop6255" />
    </linearGradient>
    <linearGradient
       inkscape:collect="always"
       xlink:href="#linearGradient6251"
       id="linearGradient7145-0"
       gradientUnits="userSpaceOnUse"
       gradientTransform="translate(-58,-335.3622)"
       x1="58"
       y1="392.36221"
       x2="58"
       y2="336.36221" />
    <linearGradient
       inkscape:collect="always"
       xlink:href="#linearGradient6251"
       id="linearGradient5849"
       gradientUnits="userSpaceOnUse"
       gradientTransform="matrix(1,0,0,0.84587337,-47,-272.73372)"
       x1="58"
       y1="403.41098"
       x2="58"
       y2="323.82297" />
  </defs>
  <metadata
     id="metadata84">
    <rdf:RDF>
      <cc:Work
         rdf:about="">
        <dc:format>image/svg+xml</dc:format>
        <dc:type
           rdf:resource="http://purl.org/dc/dcmitype/StillImage" />
      </cc:Work>
    </rdf:RDF>
  </metadata>
  <rect
     y="11.000853"
     x="7"
     height="49.999977"
     width="49.999977"
     id="rect5837"
     style="color:#000000;clip-rule:nonzero;display:inline;overflow:visible;visibility:visible;opacity:1;isolation:auto;mix-blend-mode:normal;color-interpolation:sRGB;color-interpolation-filters:linearRGB;solid-color:#000000;solid-opacity:1;fill:#9bd916;fill-opacity:1;fill-rule:nonzero;stroke:none;stroke-width:1;stroke-linecap:butt;stroke-linejoin:miter;stroke-miterlimit:4;stroke-dasharray:none;stroke-dashoffset:0;stroke-opacity:1;marker:none;color-rendering:auto;image-rendering:auto;shape-rendering:auto;text-rendering:auto;enable-background:accumulate" />
  <rect
     width="50"
     x="7"
     y="60.000854"
     height="1.0000085"
     style="color:#000000;clip-rule:nonzero;display:inline;overflow:visible;visibility:visible;opacity:0.25;isolation:auto;mix-blend-mode:normal;color-interpolation:sRGB;color-interpolation-filters:linearRGB;solid-color:#000000;solid-opacity:1;fill:#000000;fill-opacity:1;fill-rule:nonzero;stroke-width:1;stroke-linecap:butt;stroke-linejoin:miter;stroke-miterlimit:4;stroke-dasharray:none;stroke-dashoffset:0;stroke-opacity:1;color-rendering:auto;image-rendering:auto;shape-rendering:auto;text-rendering:auto;enable-background:accumulate"
     id="rect5839" />
  <rect
     width="50"
     x="7"
     y="11.000853"
     height="1.0000085"
     style="color:#000000;clip-rule:nonzero;display:inline;overflow:visible;visibility:visible;opacity:0.5;isolation:auto;mix-blend-mode:normal;color-interpolation:sRGB;color-interpolation-filters:linearRGB;solid-color:#000000;solid-opacity:1;fill:#ffffff;fill-opacity:1;fill-rule:nonzero;stroke-width:1;stroke-linecap:butt;stroke-linejoin:miter;stroke-miterlimit:4;stroke-dasharray:none;stroke-dashoffset:0;stroke-opacity:1;color-rendering:auto;image-rendering:auto;shape-rendering:auto;text-rendering:auto;enable-background:accumulate"
     id="rect5841" />
  <path
     style="color:#000000;clip-rule:nonzero;display:inline;overflow:visible;visibility:visible;opacity:0.75;isolation:auto;mix-blend-mode:normal;color-interpolation:sRGB;color-interpolation-filters:linearRGB;solid-color:#000000;solid-opacity:1;fill:#ffffff;fill-opacity:1;fill-rule:nonzero;stroke-width:2;stroke-linecap:square;stroke-linejoin:miter;stroke-miterlimit:4;stroke-dasharray:none;stroke-dashoffset:0;stroke-opacity:1;color-rendering:auto;image-rendering:auto;shape-rendering:auto;text-rendering:auto;enable-background:accumulate"
     d="m 22,39 c -2.98896,7.5e-4 -5.84891,1.21778 -7.92188,3.37109 l -2.7246,-2.72461 c -0.0942,-0.0974 -0.2239,-0.15234 -0.35938,-0.15234 -0.4494,9e-5 -0.67059,0.54683 -0.34766,0.85937 l 2.76954,2.76954 C 11.85252,45.07416 11.00038,47.49972 11,50 l 0,7 22,0 0,-7 c -0.004,-2.4983 -0.85795,-4.92089 -2.42188,-6.86914 l 2.77735,-2.77735 c 0.32293,-0.31254 0.10175,-0.85928 -0.34766,-0.85937 -0.13548,0 -0.26516,0.055 -0.35937,0.15234 L 29.91602,42.3789 C 27.8458,40.22417 24.98808,39.00438 22,39 Z m 0,1 c 5.52285,0 10,4.47715 10,10 l 0,6 -20,0 0,-6 c 0,-5.52285 4.47715,-10 10,-10 z m -4.5,5 C 16.67157,45 16,45.67157 16,46.5 16,47.32843 16.67157,48 17.5,48 18.32843,48 19,47.32843 19,46.5 19,45.67157 18.32843,45 17.5,45 Z m 9,0 C 25.67157,45 25,45.67157 25,46.5 25,47.32843 25.67157,48 26.5,48 27.32843,48 28,47.32843 28,46.5 28,45.67157 27.32843,45 26.5,45 Z"
     id="path5845"
     inkscape:connector-curvature="0"
     sodipodi:nodetypes="ccccccccccccccccsccccsssssssssss" />
  <rect
     style="color:#000000;clip-rule:nonzero;display:inline;overflow:visible;visibility:visible;opacity:0.55199998;isolation:auto;mix-blend-mode:normal;color-interpolation:sRGB;color-interpolation-filters:linearRGB;solid-color:#000000;solid-opacity:1;fill:url(#linearGradient5849);fill-opacity:1;fill-rule:nonzero;stroke:none;stroke-width:1;stroke-linecap:butt;stroke-linejoin:miter;stroke-miterlimit:4;stroke-dasharray:none;stroke-dashoffset:0;stroke-opacity:1;marker:none;color-rendering:auto;image-rendering:auto;shape-rendering:auto;text-rendering:auto;enable-background:accumulate"
     id="rect5847"
     width="49.999977"
     height="49.999977"
     x="7"
     y="11.000853" />
  <path
     style="opacity:0.75;fill:#ffffff;fill-opacity:1"
     d="M 40 12 L 40 14 L 42 14 L 42 12 L 40 12 z M 42 14 L 42 16 L 44 16 L 44 14 L 42 14 z M 42 16 L 40 16 L 40 18 L 42 18 L 42 16 z M 42 18 L 42 20 L 44 20 L 44 18 L 42 18 z M 42 20 L 40 20 L 40 22 L 42 22 L 42 20 z M 42 22 L 42 24 L 44 24 L 44 22 L 42 22 z M 42 24 L 40 24 L 40 26 L 42 26 L 42 24 z M 40 27 L 40 31 L 41 31 L 41 35 L 43 35 L 43 31 L 44 31 L 44 27 L 40 27 z M 41 28 L 43 28 L 43 30 L 41 30 L 41 28 z "
     id="rect4173-3" />
</svg>
